X:780
T:Flagstone of Memories, The
R:reel
C:Vincent Broderick
Z:id:hn-reel-780
M:C|
K:G
~B3A BAGA|BD~D2 EGGA|BD~D2 EGGA|BGdB A2GA|
~B3A BAGA|BD~D2 EGGA|Bd~d2 efge|1 dBAB G3A:|2 dBAB G2Bd||
|:~g3e ~f3d|e2ed BAGA|Bdef ~g3d|Bdef gdBd|
~g3e ~f3d|e2ed BAGA|Bd~d2 efge|1 dBAB G2Bd:|2 dBAB G3A||
